dist/img/presentation.svg

<svg width="20" height="23" viewBox="0 0 20 23" fill="none" xmlns="http://www.w3.org/2000/svg">
<path fill-rule="evenodd" clip-rule="evenodd" d="M20 6.6875V19.75C20 20.4793 19.699 21.1788 19.1632 21.6945C18.6273 22.2103 17.9006 22.5 17.1429 22.5H15.7143V21.125H17.1429C17.5217 21.125 17.8851 20.9801 18.153 20.7223C18.4209 20.4644 18.5714 20.1147 18.5714 19.75V6.6875H15.7143C15.146 6.6875 14.6009 6.4702 14.1991 6.08341C13.7972 5.69661 13.5714 5.17201 13.5714 4.625V1.875H5.71429C5.33541 1.875 4.97204 2.01987 4.70413 2.27773C4.43622 2.53559 4.28571 2.88533 4.28571 3.25V15.625H2.85714V3.25C2.85714 2.52065 3.15816 1.82118 3.69398 1.30546C4.2298 0.789731 4.95652 0.5 5.71429 0.5L13.5714 0.5L20 6.6875ZM2.28571 16.7938H0V22.2924H1.13V20.4471H2.27714C2.68714 20.4471 3.03571 20.3687 3.32286 20.2092C3.61286 20.0484 3.83429 19.8311 3.98429 19.5575C4.13998 19.2704 4.21902 18.9505 4.21429 18.6266C4.21429 18.2829 4.13857 17.9721 3.98857 17.6957C3.83937 17.421 3.61127 17.1934 3.33143 17.0399C3.04571 16.8749 2.69857 16.7938 2.28571 16.7938V16.7938ZM3.06429 18.6266C3.06944 18.8078 3.02771 18.9873 2.94286 19.1491C2.86673 19.29 2.74824 19.4055 2.60286 19.4805C2.43655 19.5597 2.25261 19.5984 2.06714 19.5932H1.12571V17.66H2.06857C2.38 17.66 2.62429 17.7425 2.8 17.9089C2.97571 18.0766 3.06429 18.3159 3.06429 18.6266ZM4.80286 16.7938V22.2924H6.88857C7.46143 22.2924 7.93714 22.1824 8.31429 21.9665C8.69594 21.7467 8.99396 21.4146 9.16429 21.0191C9.35 20.6066 9.44429 20.1089 9.44429 19.5286C9.44429 18.9511 9.35143 18.4589 9.16429 18.0505C8.99597 17.6596 8.7008 17.3316 8.32286 17.1155C7.94571 16.901 7.46714 16.7938 6.88714 16.7938H4.80286V16.7938ZM5.93286 17.6806H6.73714C7.09143 17.6806 7.38 17.7494 7.60714 17.8896C7.84291 18.038 8.02079 18.2576 8.11286 18.5139C8.22571 18.7902 8.28143 19.1354 8.28143 19.5493C8.28586 19.8235 8.2532 20.0971 8.18429 20.3633C8.13339 20.5731 8.03807 20.7707 7.90429 20.9435C7.77999 21.0977 7.61531 21.2173 7.42714 21.29C7.20666 21.3694 6.97249 21.4077 6.73714 21.4027H5.93286V17.6806V17.6806ZM11.28 20.1048V22.2924H10.1514V16.7938H13.7914V17.6916H11.28V19.2275H13.5743V20.1048H11.28V20.1048Z" fill="#D1327F"/>
</svg>

<svg width="20" height="23" fill="none" xmlns="http://www.w3.org/2000/svg"><path fill-rule="evenodd" clip-rule="evenodd" d="M20 6.688V19.75c0 .73-.301 1.429-.837 1.945a2.915 2.915 0 0 1-2.02.805h-1.429v-1.375h1.429c.379 0 .742-.145 1.01-.403a1.35 1.35 0 0 0 .418-.972V6.687h-2.857a2.186 2.186 0 0 1-1.515-.604 2.024 2.024 0 0 1-.628-1.458v-2.75H5.714c-.379 0-.742.145-1.01.403a1.35 1.35 0 0 0-.418.972v12.375H2.857V3.25c0-.73.301-1.429.837-1.945A2.915 2.915 0 0 1 5.714.5h7.857L20 6.688ZM2.286 16.794H0v5.498h1.13v-1.845h1.147c.41 0 .759-.078 1.046-.238.29-.16.511-.378.661-.651a1.89 1.89 0 0 0 .23-.931 1.92 1.92 0 0 0-.225-.931 1.647 1.647 0 0 0-.658-.656c-.285-.165-.632-.246-1.045-.246Zm.778 1.833a1.06 1.06 0 0 1-.121.522.804.804 0 0 1-.34.331 1.17 1.17 0 0 1-.536.113h-.941V17.66h.943c.311 0 .555.082.731.249.176.168.264.407.264.718Zm1.739-1.833v5.498h2.086c.572 0 1.048-.11 1.425-.326.382-.22.68-.551.85-.947.186-.412.28-.91.28-1.49 0-.578-.093-1.07-.28-1.479a1.985 1.985 0 0 0-.841-.934c-.377-.215-.856-.322-1.436-.322H4.803Zm1.13.887h.804c.354 0 .643.068.87.209.236.148.414.368.506.624.113.276.168.621.168 1.035a3.05 3.05 0 0 1-.097.814c-.05.21-.146.408-.28.58a1.14 1.14 0 0 1-.477.347c-.22.08-.455.118-.69.113h-.804V17.68Zm5.347 2.424v2.187h-1.129v-5.498h3.64v.898H11.28v1.535h2.294v.878H11.28Z" fill="#D1327F"/></svg>
